src/images/skill/bushcraft/undead.svg

<svg xmlns="http://www.w3.org/2000/svg" viewBox="0 0 512 512" style="height: 512px; width: 512px;"><g class="" transform="translate(0,0)" style=""><path d="M290.78 9.563l-19.5 72.53 70.033 26.813-39.282 40.813c-15.52 8.456-27.103 8.22-37.31 2.124-.014-.008-.02-.024-.033-.03l-5.093-11.064 41.844-33.5-49.375 17.22-29.875-64.626 14.406-31.375-31.656 22.56V51l-91.344-20.094 90.75 37.844 11.53 24.938-62.25 13.25-33.31-41.626 15.78 45.344-26.156 5.563L50.25 77.843l26.344 30.062-39.906 31.938 52.03-18.125 13.907 15.843 80.563-16.938-3.22 43.75 20.782-47.438 23.656-4.968 23.406 50.624c1.88 9.953 2.716 19.126 2.282 27.125l-45.188-17.657 41.188 35.562c-6.098 12.943-19.27 18.24-41.344 11.594l-75.344-49.97-27.97 18.53-16.405-37.343 3.376 46-9.53 6.313-65.157-49.344 61.5 74.938 54.186-35.938c10.9 7.49 21.867 14.905 32.844 22.28l-12.125 41.72-48.75 20.22 63.97-3.782 13.593-47.03c5.696 3.787 11.38 7.58 17.093 11.342 49.537 75.88 57.073 189.32 1.97 176.688 9.086 38.633-24.273 67.905-54.844 81.062h28.03l-.03-.062c25.217-7.956 40.217-20.772 55.906-45.813.113 17.364-7.4 33.346-20.875 45.876h66c-17.686-16.632-27.36-43.79-15.062-88.53 2.454 40.996 14.77 72.124 53.156 88.5v.03h25.97c-69.106-37.694-84.94-111.418-50.094-182.53l36.28-43.47 62.158 17.25-38.188-24.28 18.156-45.72-32.156 36.813-14.22-9.064-13.842 16.53c-7.277-7.843-9.635-21.475-7.78-38.405 2.074-18.954 9.395-40.43 17.123-56.25l15.938-16.405 41.53 25.97 13.408 57.28 79.75 21.938L401 219.22l-10.438-45.782 26.97-12.594L461.187 209l-26.72-56.063 9.813-4.593 50.47-2.875-34.656-13 19.437-52.19-40.374 49.845-59.406 27.72-36.28-22.72 24.124-24.844 42.437-33.968-52.31 18.22-5.408-2.094L392.75 13.31l-58.063 72.313-43.906-16.938V9.563zm-13.5 224.687c.254 15.565 4.228 30.356 15 40.594l-12.186 14.562c-9.453-13.425-9.047-33.08-2.813-55.156zm-53.78 14.28c26.69 17.688 39.887 60.23 23.75 88.595-3.706-24.886-12.738-58.882-25.688-85.188l1.938-3.406z" fill="#fff" fill-opacity="1"></path></g></svg>

<svg xmlns="http://www.w3.org/2000/svg" viewBox="0 0 512 512" style="height: 512px; width: 512px;"><g class="" transform="translate(0,0)" style=""><g><path d="M290.78 9.563L271.28 82.093L341.313 108.906L302.031 149.719C286.511 158.175 274.928 157.939 264.721 151.843C264.707 151.835 264.701 151.819 264.688 151.813L259.595 140.749L301.439 107.249L252.064 124.469L222.189 59.843L236.595 28.468L204.939 51.028L204.939 51L113.595 30.906L204.345 68.75L215.875 93.688L153.625 106.938L120.315 65.312L136.095 110.656L109.939 116.219L50.25 77.843L76.594 107.905L36.688 139.843L88.718 121.718L102.625 137.561L183.188 120.623L179.968 164.373L200.75 116.935L224.406 111.967L247.812 162.591C249.692 172.544 250.528 181.717 250.094 189.716L204.906 172.059L246.094 207.621C239.996 220.564 226.824 225.861 204.75 219.215L129.406 169.245L101.436 187.775L85.031 150.432L88.407 196.432L78.877 202.745L13.72 153.401L75.22 228.339L129.406 192.401C140.306 199.891 151.273 207.306 162.25 214.681L150.125 256.401L101.375 276.621L165.345 272.839L178.938 225.809C184.634 229.596 190.318 233.389 196.031 237.151C245.568 313.031 253.104 426.471 198.001 413.839C207.087 452.472 173.728 481.744 143.157 494.901L171.187 494.901L171.157 494.839C196.374 486.883 211.374 474.067 227.063 449.026C227.176 466.39 219.663 482.372 206.188 494.902L272.188 494.902C254.502 478.27 244.828 451.112 257.126 406.372C259.58 447.368 271.896 478.496 310.282 494.872L310.282 494.902L336.252 494.902C267.146 457.208 251.312 383.484 286.158 312.372L322.438 268.902L384.596 286.152L346.408 261.872L364.564 216.152L332.408 252.965L318.188 243.901L304.346 260.431C297.069 252.588 294.711 238.956 296.566 222.026C298.64 203.072 305.961 181.596 313.689 165.776L329.627 149.371L371.157 175.341L384.565 232.621L464.315 254.559L401 219.22L390.562 173.438L417.532 160.844L461.187 209L434.467 152.937L444.28 148.344L494.75 145.469L460.094 132.469L479.531 80.279L439.157 130.124L379.751 157.844L343.471 135.124L367.595 110.28L410.032 76.312L357.722 94.532L352.314 92.438L392.75 13.31L334.687 85.623L290.781 68.685L290.781 9.563Z" class="selected" fill="#4a4a4a" fill-opacity="1"></path><path d="M277.28 234.25C277.534 249.815 281.508 264.606 292.28 274.844L280.094 289.406C270.641 275.981 271.047 256.326 277.281 234.25Z" class="" fill="#9b9b9b" fill-opacity="1"></path><path d="M223.5 248.53C250.19 266.218 263.387 308.76 247.25 337.125C243.544 312.239 234.512 278.243 221.562 251.937L223.5 248.531Z" class="" fill="#9b9b9b" fill-opacity="1"></path></g></g></svg>
